X:49
T:49.  The Long Road (aeae tuning)
C:c 1999 Harry Bolick
R:Waltz
O:United States
A:Brooklyn, New York
M:3/4
L:1/8
Q:300
K:A
 (A,C)E |:  "A" d2 c2 A2 | "E" G3G (FE) | "F#m"  F3 C F2 |  c2 z c (Bc)|
 f2 e2 B2 | c3 c (Bc) |  f2 e2 B2 |  c3c (Bc) |
"D" d3 (c BA) | "E" G3 (E FG) | B2(BA) (GE) | "A" A3 (c Bc) :|  
|:"A" a2 a2 (3(cBc)| "E" g2g2 (fe) | "D" f2 f2 e2 | "A" c4 (BA) |
"E" B2 BG (EG) | B2 BG (EG) |[1 g2 f2 e2 | "A" c3 (c Bc) :|[2  "A" cB AG "E" FE |   "A" A3  :|
